!!!OTL: Mariahilf.
!!!OTL-incipit: DIE KOENIGSTOCHTER HARRT SO LANG
!!!ARE: Europa, Mitteleuropa, Deutschland, Niederrhein
!!!SCT: Z1062
!!!TXL: @@DE
!!!YEM: Copyright 1995, estate of Helmut Schaffrath.
**kern	**text
*ICvox	*
*M6/8	*
*k[f#]	*
*G:	*
!LO:TX:a:t=Vorſänger.	!
!LO:TX:a:t=Vom Niederrhein.	!
{8d	Die
=1	=1
4g	Kö-
(16f#L	-nigs-
16gJ)	.
4a	-toch-
16gL	-ter
16aJ	.
=2	=2
4b/	harrt
8a	ſo
4g}	lang',
{(16aL	viel
16ccJ)	.
=3	=3
4b/	Kum-
8a	-mer
4g	ihr
(16gL	das
16f#J)	.
=4	=4
4e	Herʒ
8f#	be-
4g}	-ʒwang,
{(16dL	und
16f#J)	.
=5	=5
4g	das
(16f#L	um
16gJ)	.
4a	ei-
(16gL	-nen
16aJ)	.
=6	=6
(4b/	Kna-
8a)	.
4g}	-ben,
{8cc	der
=7	=7
4b/	Kna-
8a	-be
4g	der
8f#	war
=8	=8
4e	hübſch
8f#	und
4g}	fein,
{(16gL	ſie
16aJ)	.
=9	=9
4b/	liebt'
8a	ihn
4b	ſchon
8cc	vor
=10	=10
(4dd	Jah-
8ee)	.
4dd;}	-renʒ
!LO:TX:a:t=Alle.	!
{8dd/	der
=11	=11
4ee/	Kna-
8dd/	-be
4b/	der
8cc/	war
=12	=12
4dd/	hübſch
8ee/	und
4dd/;}	fein,
{8dd/	ſie
=13	=13
4cc/	liebt'
8b/	ihn
4a	ſchon
16dd/L	vor
16ccJ	.
=14	=14
(>4.b/	Jah-
4.a)	.
=15	=15
4.g	-ren!
4r}	.
==	==
!!!AGN: Romanze, Ballade
!!!ONB: ESAC (Essen Associative Code) Database: ZUCCAL
!!!AMT: compound duple
!!!AIN: vox
!!!EED: Helmut Schaffrath
!!!EEV: 1.0
!!!RDF**kern: >= above
!!!GTL: II. Gau- Leuschen.
!!!URL-scan: https://www.digitale-sammlungen.de/de/view/bsb11160573?page=139
!!!ENC: Anna Maria Matuszewska
!!!EEV: 2025/03/02
*-	*-
